X:1
T: Health and Joy be with you
C:
R:Reel
Q: 232
K:A
M:4/4
L:1/8
|:E2|A4 B2 c2|f4 e2 d2|c2 A2 F2 G2|A3A E4|A4 B2 c2|a4 g3a|f2 e2 c2 e2|f4 fg af|
e3c e2 fg|a4 g3a|f2 e2 c2 e2|f4 fg af|e2 A2 c2 e2|f4 e3d|c2 A2 F2 G2|A6 e2|
a4 g2 a2|f4 e3c|d3c d2 e2|c3c e4|a4 g2 a2|f2 e2 d2 c2|B3c d3e|f2 e2 f2 g2|
a3g f2 e2|a4 g3a|f2 e2 c2 e2|f4 fg af|e3A c2 e2|f4 e3d|c3A F2 G2|A6||

